build/communication/LinkedinSolid.svg

<svg xmlns="http://www.w3.org/2000/svg" fill="none" viewBox="0 0 24 24" focusable="false"><path d="M0 0H24V24H0z"/><path fill="#74767B" d="M12 3C7.0293 3 3 7.02942 3 12C3 16.9706 7.0293 21 12 21C16.9705 21 21 16.9706 21 12C21 7.02942 16.9705 3 12 3ZM9.59888 16.3511L7.6228 16.3511L7.6228 9.96704L9.59888 9.96704L9.59888 16.3511ZM8.60132 9.13104C7.95605 9.13104 7.43286 8.60358 7.43286 7.95306C7.43286 7.30249 7.95605 6.77509 8.60132 6.77509C9.24658 6.77509 9.76978 7.30249 9.76978 7.95306C9.76978 8.60364 9.24658 9.13104 8.60132 9.13104ZM17.0039 16.3511L15.0376 16.3511L15.0376 13C15.0376 12.0809 14.6885 11.5679 13.9617 11.5679C13.1707 11.5679 12.7576 12.1022 12.7576 13L12.7576 16.3511L10.8623 16.3511L10.8623 9.96704L12.7576 9.96704L12.7576 10.8269C12.7576 10.8269 13.3276 9.77234 14.6812 9.77234C16.0349 9.77234 17.0039 10.5989 17.0039 12.3088L17.0039 16.3511Z"/></svg>

<svg xmlns="http://www.w3.org/2000/svg" fill="none" viewBox="0 0 24 24" focusable="false"><path fill="none" d="M0 0h24v24H0z"/><path fill="#74767B" d="M12 3c-4.98 0-9 4.02-9 9 0 4.97 4.02 9 9 9a9 9 0 0 0 9-9c0-4.98-4.03-9-9-9M9.59 16.35H7.62V9.96h1.97zM8.6 9.13c-.65 0-1.17-.53-1.17-1.18s.52-1.18 1.17-1.18c.64 0 1.16.53 1.16 1.18S9.24 9.13 8.6 9.13m8.4 7.22h-1.97V13c0-.92-.35-1.44-1.07-1.44-.79 0-1.21.54-1.21 1.44v3.35h-1.89V9.96h1.89v.86s.57-1.05 1.93-1.05c1.35 0 2.32.82 2.32 2.53z"/></svg>
